X:286
T:Black Joak. JaW.286
M:6/8
L:1/8
Q:3/8=80
S:James Winder Ms, Lancashire, 1835-41
R:.Jig/joak
O:England
A:Wyresdale,Lancashire
Z:vmp.Chris Partington, Aug 2004
K:C
G|cdc cBc|ded dcd|efe edc|ded dcB|!
c3 A3|GAB “^c3 in MS”c2::\
f|efg geg|abc’ g2f|!
efg geg|abc’ g2f/e/|f2d’ e2d’|ded dcd|!
efe gec|ded dcB|c3 A3|GAB c2:|

